X:54
T:Balquidder Lasses
K:E dor
M:4/4
L:1/8
Z:abc-transcription Josh Larios <hades@elsewhere.org>, 2014.04.15
B:Sarah Comer, Dusty Strings dance band class.
|: BA | "Em"G2FG EFGA | B2B2e3e | "D"d2A2ABAF | DEFGA2BA |
"Em"G2FG EFGA | B2B2e3e | "D"d2A2"B7"BAGF | "Em"E4E2 :|
[| B2 | "Em"e3fe2B2 | efgfe2Bc | "D"d2de dAFA | DEFGA2B2 |
"Em"e3fe2B2 | efgfe2Bc | "D"d2A2"B7"BAGF | "Em"E4E2B2 |
"Em"e3fe2B2 | efgfe2Bc | "D"d2de dAFA | DEFGA2BA |
"Em"G2FG EFGA | B2B2e3e | "D"d2A2"B7"BAGF | "Em"E4E2 |]

